X:1
T:Les Orientales
T:Clair de lune
T:A Madame Ch. Lamoureux (BRUNET-LAFLEUR) 
T:Les Orientales
T:3. Clair de lune
T:Marie Jaëll 
T:Victor Hugo 
T:Creative Commons copyright waiver (CC0 1.0 Universal)
T:Creative Commons copyright waiver (CC0 1.0 Universal)
T:Creative Commons copyright waiver (CC0 1.0 Universal)
T:Creative Commons copyright waiver (CC0 1.0 Universal)
T:Creative Commons copyright waiver (CC0 1.0 Universal)
T:Creative Commons copyright waiver (CC0 1.0 Universal)
T:Creative Commons copyright waiver (CC0 1.0 Universal)
T:Creative Commons copyright waiver (CC0 1.0 Universal)
C:Marie Jaëll
Z:Victor Hugo
Z:Creative Commons copyright waiver (CC0 1.0 Universal)
%%score 1 { ( 2 3 ) | ( 4 5 ) }
L:1/8
Q:1/4=60
M:6/8
K:E
V:1 treble nm="Chant\nVoice"
V:2 treble nm="Piano"
V:3 treble 
V:4 bass 
V:5 bass 
V:1
"^Assez lentement" z6 | z6 | z6 | z2 z z2!mp! B | B3- B3/2 G/ G/ G/ | G3- G E E | C3- C D D | %7
w: |||La|lune _ é- tait se-|reine _ et jou-|\- ait _ sur les|
 E3- !tenuto!.E G G | G3- G3/2 G/ G |!<(! A3- A B c!<)! | c3- c d c |!>(! B6!>)! | G2 z z2 z | %13
w: flots. _ La fe-|nêtre _ en- fin|libre _ est ou-|verte _ à la|bri-|se,|
 z2!<(! d/ d/ e2!<)! c/ c/ | (d3-!>(! d2!>)! ^A) | ^A2 z2 z2 | z2 z z!<(! d d!<)! | %17
w: La sul- ta- ne re-|gar- * *|\- de,|et la|
 e3-!>(! e d c!>)! |!mp! B3- B G2 | z2 E E3- | E z E A2 A |!>(! !>!^A6!>)! | B3- B!>(! ^A A | %23
w: mer _ qui se|bri- * se,|Là- bas,|_ d'un flot d’ar-|\- gent|bro- * de les|
 B3- B A2!>)! | G6- | G6 | z6 | z6 | z6 |"^un peu retenu"[Q:1/4=54] G/ B/ ^A2- A D D | D3 z2 ^A | %31
w: noirs _ î-|\- lots.|_||||De ses doigts _ en vi-|\- brant s’é-|
 =A3/2 D/ ^E/ F/ D2 D | z2 !fermata!z z[Q:1/4=60]"^a tempo"!<(! D D!<)! |!>(! D2 D!>)! z2 z | z6 || %35
w: chap- pe la gui- ta- re.|Elle é-|cou- te ...||
[K:G][M:2/4]"^Voice part: local time signture 2/4"[Q:1/4=172]"^Très vite" z6 | z3!p! E E | %37
w: |Un bruit|
 E2 (3E3/4 E3/4 E3/4 | E E E2- |[Q:1/4=160]"^rit." E2 !fermata!z3[Q:1/4=150][Q:1/4=130] | %40
w: sourd frap- pe les|sourds é- chos.|_|
[Q:1/4=172] z6 | z3!mf! d d | ^c c =c2 | B3 e | d d c c | B2- B B | ^A2 (3B3/4 B3/4 B3/4 | %47
w: |Est\-ce un|lourd vais- seau|turc qui|vient des eaux de|Cos, _ Bat-|\- tant l’ar- chi- pel|
 ^A2 d d | ^c2 =c c | B2 B z3/2 | z6 | z6 ||[K:F] z6 |!f! D D F G/ G/ | A3 A | A A B B | B3 D | %57
w: grec de sa|ra- me tar-|ta- re ?||||Sont- ce des cor- mo-|rans qui|plon- gent tour à|tour, Et|
 D D F2- | F D F ^G | A D F ^G | A3 A | z6 | z6 | z6 ||[K:Eb] z3!f! c c | c2 G G | A2 e2- | %67
w: cou- pent l’eau,|_ qui roule en|per- les sur leur|ai- le?||||Est\-ce un|djinn qui là-|haut sif-|
 e c (3c3/4 c3/4 G3/4 | A4 | G2 z3/2 G | A A ^F F | G2 C =B, | C2 C =B, | C4 | z6 | z6 | %76
w: * fle d’u- ne voix|grê-|le, Et|jet- te dans la|mer les cré-|\- neaux de la|tour?|||
 z3/2 C E G | c e g2- | g e c A | G E E E | z6 | z6 | z6 || %83
w: Qui trouble ain-|si les flots|_ près du sé-|rail des fem- mes?||||
[K:G][M:2/4][Q:1/4=92]"^Plus lent" z2!<(! F F | A2 ^G B!<)! | !>!d2!p! ^G G | ^^F2 F ^A | ^c4 | %88
w: Ni le|noir cor- mo-|ran, sur la|va- gue ber-|cé,|
 z2!<(! =F F!<)! |!>(! E2 ^D!>)! D | E4 ||[M:6/8][Q:1/8=92] z!pp! =F F A A ^d | ^c2 A F2 ^D | %93
w: Ni les|pier- res du|mur,|ni le bruit ca- den-|\- cé D’un lourd vais-|
 F2 D =F2 ^C | E3- E3/2 E/ E/ E/ | ^D2 D z z2 | z6 |[Q:1/4=172]"^Très vite" z6 | z6 | %99
w: seau, ram- pant sur|l’onde _ a- vec des|ra- mes.||||
 z2 z z2!pp! c | B2 B!<(! B2 ^d!<)! |!>(! ^c3-!>)! c2 =c | B2 B _B2!<(! B!<)! |!>(! B3!>)! z G G | %104
w: Ce|sont des sacs pe-|\- sants, _ d’où|par- tent des san-|glots. On ver-|
"^cresc." A3 ^D2 =F | E3- E2 E |!f! A2 ^D D2 =F | E3- E2 E | z2 z !>!^D2 !>!D | %109
w: rait, en son-|\- dant _ la|mer qui les pro-|mè- * ne,|Se mou-|
[Q:1/4=114]"^Plus lent"!ff! E6 | G G G !^!B2 !^!G | !^!E3- E2 E | z6 | z6 | z6 | z6 | z6 || %117
w: voir|comme u- ne forme hu-|mai- * ne||||||
[K:E][Q:1/4=50]"^Très lentement" z6 | z6 | z6 | z2 z z2!p! B | B3- B3/2 G/ G/ G/ | %122
w: |||La|lune _ é- tait se-|
 G3-!<(! G E E!<)! |!>(! C6!>)! |!pp! D3- D D2 | E6 | z6 | z6 |] %128
w: reine _ et jou-|ait|sur _ les|flots.|||
V:2
!p!(x/E/G/E/G/E/ G/E/G,/E/G/E/ | A,/F/A/F/A/F/ A/F/A,/F/A/F/ | ^A,/^^F/^A/F/A/F/ A/F/A,/F/A/F/ | %3
 B,/G/B/G/B/G/ B/G/B,/G/B/G/) | (B,/G/B/G/B/G/ B/G/B,/G/B/G/ | G,/E/G/E/G/E/ G/E/G,/E/G/E/ | %6
 A,/F/A/F/A/F/ A/F/A,/F/A/F/ | G,/E/G/E/G/E/ G/E/G,/E/G/E/) | (^B,/F/G/F/G/F/ G/F/!<(!B,/F/G/F/ | %9
 C/E/A/E/A/E/ A/E/C/E/A/E/)!<)! |!>(! (^A,/E/^^F/E/F/E/ F/E/A,/E/F/E/!>)! | %11
 B,/E/G/E/G/E/ G/E/B,/E/G/E/ | B,/E/G/E/G/E/ G/E/B,/E/G/E/) | (B,/D/B/D/B/D/ ^A/E/^A,/E/A/E/ | %14
!<(! D/^A/d/A/d/A/!<)!!>(! D/A/d/A/d/A/!>)! |"_perdendosi" d'2 d2 D2) | %16
 (D/B/d/B/d/B/ d/B/D/B/d/B/ | C/A/c/A/c/A/ c/A/C/A/c/A/ | G,/E/G/E/G/E/ G/E/G,/E/G/E/ | %19
!pp! A,/E/F/E/F/E/!<(! F/E/A,/E/F/E/ | A,/E/F/E/F/E/!<)! F/E/A,/E/F/E/) | %21
!>(! (^A,/E/^^F/E/F/E/ F/E/A,/E/F/E/!>)! |!pp! G,/E/G/E/G/E/!>(! G/E/^A,/E/^^F/E/ | %23
 G,/E/G/E/G/E/ G/E/A,/F/A/F/)!>)! |!ppp! (B,/G/B/G/B/G/ B/G/B,/G/B/G/ | %25
 B,/G/B/G/B/G/ B/G/B,/G/B/G/) | (G,/E/G/E/G/E/ G/E/G,/E/G/E/ | G,/E/G/E/G/E/!>(! G/E/G,/E/G/E/ | %28
 G,/E/G/E/G/E/ G/E/G,/E/G/)!>)! z/ |"^un peu retenu" G (^A2 x x2 | %30
 !>!^a3)!>(! (!wedge!B2 !wedge!^A)!>)! | =A x x x3 | d'2 !fermata!z"^a tempo"!p!!<(! D2 D!<)! | %33
!>(! DDD D2!>)! z | D2!>(! D D D2!>)! ||[K:G]!pp! !wedge!E2 !wedge!G !wedge!B2 !wedge!G | %36
 !wedge!E2 !wedge!G !wedge!c2 !wedge!G | !wedge!E2 !wedge!G !wedge!B2 !wedge!G | %38
 !wedge!E2 !wedge!G!>(! !wedge!c2 !wedge!G | %39
"^rit." !wedge!E2 !wedge!G !wedge!c2!>)!!<(! !wedge!!fermata!G/ z/!<)! | %40
!pp!"^a tempo" !>!!wedge!E2 !wedge!G !wedge!B2 (c | !wedge!B2)!<(! G!<)! !>!!wedge!E2!mp! (d | %42
 ^c2)!<(! !wedge!G!<)! !>!E2!mp! (=c | B2)!<(! G!<)! !>!E2 (e | d2)!<(! .G!<)! !>!.E2!mp! (c | %45
 B2)!<(! .G!<)! !>!.E2!mp! (B | ^A2)!<(! G!<)! !>!E2!mp! (B | ^A2)!<(! G!<)! !>!E2!mp!!<(! (d!<)! | %48
 ^c2)!<(! G!<)! !>!E2!>(! (=c | B2) G E2 (A | G2) E !>!B,2!>)! z | !>!C2 z !>!^C2 z || %52
[K:F]!pp! D2 !wedge!F !wedge!A2 (B | A2) F !>!!wedge!D2 (d | f2) !wedge!F !>!!wedge!D2 (f | %55
 d2)!<(! !wedge!F!<)! !>!!wedge!D2 (d | _B2)!<(! !wedge!F!<)! !>!!wedge!D2 (A | %57
 ^G2)!<(! !wedge!F!<)! !>!!wedge!D2 (_B, | ^G2)!<(! !wedge!F!<)! !>!!wedge!D2 (_B, | %59
 A2)!<(! !wedge!F!<)! !>!!wedge!D2 (_B, | A2)!<(! F!<)! !>!D2 (_B, | A2)!<(! F!<)! !>!D2 (_B, | %62
 !>!A,3) z2 z | !>!B,2 z !>!=B,2 z ||[K:Eb]!pp! C2!<(! .E!<)! !>!.G2 (_A | %65
 c2)!<(! .e!<)! !>!.g2 (g | a2)!<(! .c'!<)! !>!.e'2 (^f | %67
"_cresc." g2)!<(! !wedge!c'!<)! !>!!wedge!e'2 (=B | c2)!<(! !wedge!e!<)! !>!!wedge!a2 (=B | %69
 c2) !wedge!e !>!!wedge!g2 (G |!mf! A2)!<(! !wedge!c!<)! !>!!wedge!e2 (^F | %71
!>(! G2) !wedge!c !>!!wedge!e2!>)! (=B, | C2) !wedge!E !>!!wedge!A (=B,2 | C) E2 A3- | %74
 A3- A z!f! (^A,/=B,/ | !>!C/)=B,/C/B,/C/B,/ !//-!C3/2 B,3/2!f! | %76
!<(! !//-!C3/2 =B,3/2 !//-!C3/2 B,3/2 | !//-!C3 =B,3!<)! |!ff!!>(! !//-!C3 =B,3 | %79
 !//-!C3 =B,3!>)! |!pp! !//-!C3 =B,3 | !//-!C3 =B,3 | (C=B,)(C B,)(CB,) || %83
[K:G][M:2/4]"^Plus lent"!p! ([^DF]4- | [DF]2!>(! !>![^^C^E]2- | [CE]2)!>)!!pp! ([D^G]2 | %86
 [^C^^F]4- | [CF]2) G2 |!<(! (=F4!<)! |!>(! E2 ^D2 | E4)!>)! || %91
[M:6/8]"_Voice & Piano:\nGeneral time\nsignature 6/8\n"!pp! (=F3 [^DA]2 [Fc] | %92
 [^DA]2 [CF] [DA]2) ([DA] | [CF]2 [=D^G] [B,=F]2 [^C=G] | [^A,E]2 [^CG] [A,E]2 [CG] | %95
!pp! [=C^F]2 [A,^D] C3- | C3- C2) B, |"^Très vite"!ppp! !wedge!E2 !wedge!G !wedge!B2!<(! (c!<)! | %98
!pp! B2) !wedge!G !wedge!E2!<(! (d!<)! |!pp! ^c2) !wedge!G !wedge!E2!<(! (=c!<)! | %100
!pp! B2) !wedge!G !wedge!E2!<(! (d!<)! |!pp! ^c2) !wedge!G !wedge!E2!<(! (=c!<)! | %102
!pp! B2) !wedge!G !wedge!E2 (C |[K:bass]!p! B,2) !wedge!G,!<(! !wedge!E,2 (B, | %104
 A,2)[K:treble] !wedge!C !wedge!^D2 (=F | E2) !wedge!C !wedge!A,2 (B,!<)! | %106
!mf!"_cresc." A,2) !wedge!C !wedge!^D2 (=F | E2) !wedge!C[K:bass] !wedge!A,2 (=D | %108
 C2) !wedge!A,!<(! !wedge!F,2 (C!<)! |"^Plus lent"!ff! !>!B,2) !wedge!G, !>!!wedge!E,2 (C | %110
 !>!B,2) !wedge!G, !>!!wedge!E,2 (C | B,2) !wedge!G,!>(! !>!!wedge!E,3- | E,3- E,2!>)!!p! (=C | %113
 B,2) !wedge!G, !wedge!E,3- |!>(! E,3- E,2 (G, | E,3-) E,2 (G, | E,3-) E,2 (G,!>)! || %117
[K:E][K:treble]!pp!(x/)E/G/E/G/E/ G/E/G,/E/G/E/ | A,/F/A/F/A/F/ A/F/A,/F/A/F/ | %119
 ^A,/^^F/^A/F/A/F/ A/F/A,/F/A/F/ | B,/G/B/G/B/G/ B/G/B,/G/B/G/) | (B,/G/B/G/B/G/ B/G/B,/G/B/G/ | %122
 G,/E/G/E/G/E/ G/E/G,/E/G/E/ | A,/F/A/F/!>(!A/F/ A/F/A,/F/A/F/ | A,/F/A/F/A/F/ A/F/A,/!>)!F/A/F/ | %125
 G,/E/G/E/G/E/ G/E/G,/E/G/E/ | G,/E/G/E/G/E/ G/E/G,/E/G/E/- | [EG]6) |] %128
V:3
 G,3- G, G,2 | A,3- A, A,2 | ^A,3- A, A,2 | B,3- B, B,2 | x6 | x6 | x6 | x6 | x6 | x6 | x6 | x6 | %12
 x6 | x6 | x6 | x6 | x6 | x6 | x6 | x6 | x6 | x6 | x6 | x6 | x6 | x6 | x6 | x6 | x6 | %29
 D^A/D/A/d/ A/d/A/d/A/d/ | x3 D2 D | (A/D/A/d/A/d/ a/d/a/d/a/d'/-) | x3 B,2 =C | C^B,=B, ^A,2 x | %34
 =A,2 x4 ||[K:G] x6 | x6 | x6 | x6 | x6 | x6 | x6 | x6 | x6 | x6 | x6 | x6 | x6 | x6 | x6 | x6 | %51
 x6 ||[K:F] x6 | x6 | x6 | x6 | x6 | x6 | x6 | x6 | x6 | x6 | x6 | x6 ||[K:Eb] x6 | x6 | x6 | x6 | %68
 x6 | x6 | x6 | x6 | x6 | x6 | x6 | x6 | x6 | x6 | x6 | x6 | x6 | x6 | x6 ||[K:G][M:2/4] x4 | x4 | %85
 x4 | x4 | x4 | x4 | x4 | x4 ||[M:6/8] x6 | x6 | x6 | x6 | x6 | x6 | x6 | x6 | x6 | x6 | x6 | x6 | %103
[K:bass] x6 | x2[K:treble] x4 | x6 | x6 | x3[K:bass] x3 | x6 | x6 | x6 | x6 | x6 | x6 | x6 | x6 | %116
 x6 ||[K:E][K:treble] G,3- G, G,2 | A,3- A, A,2 | ^A,3- A, A,2 | B,3- B, B,2 | B,3 x3 | G,3 x3 | %123
 x6 | x6 | x6 | x6 | x6 |] %128
V:4
"^una corda"!ped! (E,2 B,, E,,B,,E,)!ped-up! |!ped! (F,2 B,, E,,B,,F,)!ped-up! | %2
!ped! (^^F,2 B,, E,,B,,F,)!ped-up! |!ped! (G,2 B,, E,,B,,G,)!ped-up! | %4
!ped! (G,2 B,, E,,B,,G,)!ped-up! |!ped! (E,2 B,, E,,B,,E,)!ped-up! | %6
!ped! (F,2 B,, E,,B,,F,)!ped-up! |!ped! (E,2 B,, E,,B,,E,)!ped-up! | %8
!ped! (D,2 G,, D,,G,,D,)!ped-up! |!ped! (F,2 E, E,,A,,E,)!ped-up! |!ped! (^^F,3 E,, F,2!ped-up! | %11
!ped! G,2 B,,) E,,B,,G,!ped-up! |!ped! G,2 B,, E,,B,,G,!ped-up! | (F,2 B,,) (F,,C,F,) | %14
"_extra slur is nugatory on a single(tied) note,  removed" ^^F,6- | F,3- F,2 (^^F, | %16
 ^F,2!<(! B,, F,B,F,)!<)! |!>(! (E,2 A,, E,A,E,)!>)! | (E,2 B,, E,,B,,E,) | (C,B,,) z (C,2 E,,) | %20
 (C,B,,) z (C,2 E,,) | (C, ^B,,2) (C, B,,2) | (=B,,2 E,, B,,^^F,)(=C, | B,,2) (E,, B,, F,2 | %24
 G,2) (E,, B,,G,B,- | B,2) (E,, B,,G,B,- | B,2) (E,, B,,E,G,- | G,2) (E,, B,,E,G,- | G,6) | %29
 B, ^^F,2- F,3- | F,3 (!wedge!G,2 !wedge!^F,) | ^E,6- | E,2 !fermata!z (=G,2 ^G, | A,G,=G, F,2) z | %34
 =F,2 z z2 z || %35
[K:G]"_Piano: general time signature 6/8"!>(!!ped! E,/^D,/E,/D,/E,/D,/ E,/!>)!!ped-up! z/ z z | %36
!>(!!ped! E,/^D,/E,/D,/E,/D,/ E,/!>)!!ped-up! z/ z z | %37
!>(!!ped! E,/^D,/E,/D,/E,/D,/ E,/!>)!!ped-up! z/ z z | %38
!>(!!ped! E,/^D,/E,/D,/E,/D,/ E,/!>)!!ped-up! z/ z z | %39
!>(!!ped! E,/^D,/E,/D,/E,/D,/ E,/!>)!!ped-up! z/ z !fermata!z/ (^^C,/4D,/4 | %40
!ped! !//-!E,3/2)"_(Ne pas lever la pédale jusqu'a l'indication sans .)" ^D,3/2 !//-!E,3/2 D,3/2 | %41
 !//-!E,3/2 ^D,3/2 !>!E,2 (^^C,/D,/ | !//-!E,3/2) ^D,3/2 !>!E,2 (^^C,/D,/ | %43
 !//-!E,3/2) ^D,3/2 !>!E,2 (^^C,/D,/ | !//-!E,3/2) ^D,3/2 !>!E,2 (^^C,/D,/ | %45
 !//-!E,3/2) ^D,3/2 !>!E,2 (^^C,/D,/ | !//-!E,3/2) ^D,3/2 !>!E,2 (^^C,/D,/ | %47
 !//-!E,3/2) ^D,3/2 !>!E,2 (^^C,/D,/ | !//-!E,3/2) ^D,3/2 !>!E,2 (^^C,/D,/ | %49
 !//-!E,3/2) ^D,3/2 !>!E,2 (^^C,/D,/ | !//-!E,3/2) ^D,3/2 !//-!E,3/2 D,3/2!ped-up! | %51
 !//-!E,3/2 ^D,3/2 !//-!E,3/2 D,3/2 || %52
[K:F]!ped! !//-!D,3/2"_(Ne pas lever la pédale jusqu'a l'indication sans .)" ^C,3/2 !//-!D,3/2 C,3/2 | %53
 !//-!D,3/2 ^C,3/2 !>!D,2 (^B,,/C,/ | !//-!D,3/2) ^C,3/2 !>!D,2 (^B,,/C,/ | %55
 !//-!D,3/2) ^C,3/2 !>!D,2 (^B,,/C,/ | !//-!D,3/2) ^C,3/2 !>!D,2 (^B,,/C,/ | %57
 !//-!D,3/2) ^C,3/2 !>!D,2 (^B,,/C,/ | !//-!D,3/2) ^C,3/2 !>!D,2 (^B,,/C,/ | %59
 !//-!D,3/2) ^C,3/2 !>!D,2 (^B,,/C,/ | !//-!D,3/2) ^C,3/2 !>!D,2 (^B,,/C,/ | %61
 !//-!D,3/2) ^C,3/2 !>!D,2 (^B,,/C,/!ped-up! | !//-!D,3) ^C,3 | !//-!D,3 ^C,3 || %64
[K:Eb]"_(Ne pas lever la pédale jusqu'a l'indication sans .)"!ped! !//-!C,3/2 =B,,3/2 !>!C,2 (^A,,/B,,/ | %65
 !//-!C,3/2) =B,,3/2 !>!C,2 (^A,,/B,,/ | !//-!C,3/2) =B,,3/2 !>!C,2 (^A,,/B,,/ | %67
 !//-!C,3/2) =B,,3/2 !>!C,2 (^A,,/B,,/ | !//-!C,3/2) =B,,3/2 !>!C,2 (^A,,/B,,/ | %69
 !//-!C,3/2) =B,,3/2 !>!C,2 (^A,,/B,,/ | !//-!C,3/2) =B,,3/2 !>!C,2 (^A,,/B,,/ | %71
 !//-!C,3/2) =B,,3/2 !>!C,2 (^A,,/B,,/ | !//-!C,3/2) =B,,3/2 C,2 (^A,,/B,,/ | !//-!C,3) =B,,3 | %74
 !//-!C,3 =B,,3 | C,2"_2" !wedge!A, !wedge!G,2"_2" (E, | %76
"_2" C,2)"_4" !wedge!A,,"_1" !wedge!G,,2"_2" (E,, | C,,3-) !wedge!C,,2"_2" (E,, | %78
"_1" !>!G,,2)"_2" !wedge!A,,"_1" !>!!wedge!C,2"_2" (E, |"_1" !>!G,2) A,-!ped-up! A,2 z | %80
!>(! (G,2 A,-)!>)! A, z z | z2 z A, z z | z6 || %83
[K:G][M:2/4]"^Voice & Piano:\nGeneral time\nsignature 2/4\n" (C4- | C2 !>!B,2- | B,2) B,2 | ^A,4- | %87
 A,4 | ([=A,=C]4 | [^G,B,]2 [^^F,^A,]2 | [^G,B,]4) ||[M:6/8] [A,C]3 (=F,,^D,F,, | %92
 ^D,=F,,D, F,,D,F,, | ^D,=F,,=D, F,,^C,F,, | ^C,=F,,C, F,,C,F,, | =C,2 D, ^F,) z z | =F, z z z2 z | %97
"_(Ne pas lever la pédale jusqu'a l'indication sans .)"!ped! !//-!E,,3/2 ^D,,3/2 E,,/D,,/E,,/D,,/(^^C,,/D,,/ | %98
 !//-!E,,3/2) ^D,,3/2 E,,/D,,/E,,/D,,/(^^C,,/D,,/ | %99
 !//-!E,,3/2) ^D,,3/2 E,,/D,,/E,,/D,,/(^^C,,/D,,/ | %100
 !//-!E,,3/2) ^D,,3/2 E,,/D,,/E,,/D,,/(^^C,,/D,,/ | %101
 !//-!E,,3/2) ^D,,3/2 E,,/D,,/E,,/D,,/(^^C,,/D,,/ | %102
 !//-!E,,3/2) ^D,,3/2 E,,/D,,/E,,/D,,/!<(!(^^C,,/D,,/!<)! | %103
 !//-!E,,3/2) ^D,,3/2 E,,/D,,/E,,/D,,/!<(!(^^C,,/D,,/!<)! | !//-!E,,3) ^D,,3 | %105
 !//-!E,,3/2 ^D,,3/2 E,,/D,,/E,,/D,,/!<(!(^^C,,/D,,/!<)! | !//-!E,,3) ^D,,3 | %107
 !//-!E,,3/2 ^D,,3/2 E,,/D,,/E,,/D,,/!<(!(^^C,,/D,,/!<)! | %108
 !//-!E,,3/2) ^D,,3/2 E,,/D,,/E,,/D,,/!<(!(^^C,,/D,,/!<)! | %109
 !//-!E,,3/2) ^D,,3/2 !//-!E,, =D,,!<(! (^^C,,/^D,,/!<)! | %110
 !//-!E,,3/2) ^D,,3/2 !//-!E,, =D,,!<(! (^^C,,/^D,,/!<)! | %111
 !//-!E,,) D,,!<(! (^^C,,/^D,,/!<)! E,,3-)!ped-up! | E,,3- E,,2 (^^C,,/^D,,/ | E,,6-) | %114
 E,,3- E,,2 (^^C,,/^D,,/ | E,,3-) E,,2 z | z6 ||[K:E]!ped! z (E,B,, E,,B,,E,)!ped-up! | %118
!ped! z (F,B,, E,,B,,F,)!ped-up! |!ped! z (^^F,B,, E,,B,,F,)!ped-up! | %120
!ped! z (G,B,, E,,B,,G,)!ped-up! |!ped! z (G,B,, E,,B,,G,)!ped-up! | %122
!ped! z (E,B,,) (E,,B,,E,)!ped-up! |!ped! z (!tenuto!F,B,,- B,,)(B,,E,!ped-up! | %124
!ped! F,2 B,, E,,B,,F,)!ped-up! |!ped! (E,2 B,, E,,B,,E,-!ped-up! | %126
!ped! E,E,B,, E,, B,,2-!ped-up! | [E,,,B,,]6) |] %128
V:5
 x6 | x6 | x6 | x6 | x6 | x6 | x6 | x6 | x6 | x6 | x6 | x6 | x6 | x6 | x6 | x6 | x6 | x6 | x6 | %19
 x6 | x6 | x6 | x6 | x6 | x4 G,B, | x4 G,B, | x4 E,G, | x4 E,G, | x6 | x6 | x6 | x6 | x6 | x6 | %34
 x6 ||[K:G] x6 | x6 | x6 | x6 | x6 | x6 | x6 | x6 | x6 | x6 | x6 | x6 | x6 | x6 | x6 | x6 | x6 || %52
[K:F] x6 | x6 | x6 | x6 | x6 | x6 | x6 | x6 | x6 | x6 | x6 | x6 ||[K:Eb] x6 | x6 | x6 | x6 | x6 | %69
 x6 | x6 | x6 | x6 | x6 | x6 | x6 | x6 | x6 | x6 | x6 | x6 | x6 | x6 ||[K:G][M:2/4] x4 | x4 | x4 | %86
 x4 | x4 | x4 | x4 | x4 ||[M:6/8] x6 | x6 | x6 | x6 | =F,,3 x3 | x6 | x6 | x6 | x6 | x6 | x6 | x6 | %103
 x6 | x6 | x6 | x6 | x6 | x6 | x6 | x6 | x6 | x6 | x6 | x6 | x6 | x6 ||[K:E] x6 | x6 | x6 | x6 | %121
 x6 | x6 | x6 | x6 | x6 | x6 | x6 |] %128

